X:1
T:The Christmas Story
T:The Christmas Story
T:B. T. Worden
T:Julia Harriet Johnston, 1899
T:Public Domain Courtesy of the Cyber Hymnal™
T:Public Domain Courtesy of the Cyber Hymnal™
C:B. T. Worden
Z:Public Domain
Z:Courtesy of the Cyber Hymnal™
%%score ( 1 2 ) ( 3 4 )
L:1/8
Q:1/4=95
M:4/4
K:C
V:1 treble 
V:2 treble 
V:3 bass 
V:4 bass 
V:1
 [EG]>[DF] | [CE]3 C [CE][EG] | [FA]2 [EG]2 [EG]>[Ec] | [FB]3 [FG] [FA][FG] | [Ec]4 [EG]>[DF] | %5
w: 1.~Long a-|go, in Beth- lehem’s|man- ger, Christ was|born, the Sav- ior|King; An- gel|
w: 2.~By its|clear and ra- diant|shin- ing, Wise men|from the East were|led; “Where is|
w: 3.~With no|shin- ing star to|guide me, I can|find my Sav- ior|King; He is|
 [CE]3 C [CE][EG] | [FA]2 [EG]2 [EG]>[Ec] | [DB]3 [DG] [GB]>[^FA] | G4 [DG]>[DG] | %9
w: voi- ces shout the|wel- come, Hark, the|glad ho- san- nas|ring. In the|
w: He, the Heav’n born|rul- er? We have|seen His star,” they|said. Her- od’s|
w: near, and He is|wait- ing, Will- ing|gifts a child may|bring. Lord of|
 [DF]3 D [DA][DG] | [CE]2 [EG]2 [EG]>[EG] | [DF]3 D [DA][DG] | [CE]4 [CE]>[EG] | %13
w: East, a star ap-|pear- ing, Her- ald|of His wond- rous|birth, Shed its|
w: heart was deep- ly|trou- bled, But the|wise men from a-|far, Found the|
w: life and King of|glo- ry, Christ a|lit- tle child was|born; Tell a-|
 [Ec]3 [EG] [DF][CE] | D2 [=DA]2 [^DA]>[DA] | [EG]3 D [DG][DF] | [CE]4 [CE]>[EG] | %17
w: beams of light and|glo- ry, O’er the|sin- ning, sor- rowing|earth; Shed its|
w: low- ly Beth- lehem|cra- dle, Guid- ed|by the wond- rous|star; Found the|
w: gain the Christ- mas|sto- ry, Bring Him|gifts on Christ- mas|morn; Tell a-|
 [Ec]3 [Ge] [Gd][Gc] | [FA]2 !fermata![Fc]2 [^DB][DA] | [EG][CE] [B,E]3 [B,D] | C4 |] %21
w: beams of light and|glo- ry, O’er the|sin- ning, sor- rowing|earth.|
w: low- ly Beth- lehem|cra- dle, Guid- ed|by the wond- rous|star.|
w: gain the Christ- mas|sto- ry, Bring Him|gifts on Christ- mas|morn.|
V:2
 x2 | x3 C x2 | x6 | x6 | x6 | x3 C x2 | x6 | x6 | G4 x2 | x3 D x2 | x6 | x3 D x2 | x6 | x6 | %14
 ^D2 x4 | x3 D x2 | x6 | x6 | x6 | x6 | C4 |] %21
V:3
 [C,C]>[C,C] | [C,G,]3 [C,E,] [C,G,][C,C] | [C,C]2 [C,C]2 [C,C]>[C,C] | [G,D]3 [G,B,] G,G, | %4
 [C,G,]4 [C,C]>[C,C] | [C,G,]3 [C,E,] [C,G,][C,C] | [C,C]2 [C,C]2 [C,C]>[C,G,] | %7
 [D,G,]3 [D,B,] [D,D]>[D,C] | [G,,G,B,]4 [G,B,]>[G,B,] | [G,B,]3 [G,B,] [G,B,][G,B,] | %10
 [C,C]2 [C,C]2 [C,C]>[C,C] | [G,B,]3 [G,B,] [G,B,][G,B,] | [C,C]4 [C,G,]>[C,G,] | %13
 [C,G,]3 [C,G,] [D,G,][E,G,] | [F,A,]2 [F,A,]2 [^F,C]>[F,C] | [G,C]3 [G,B,] [G,B,][G,B,] | %16
 [C,C]4 [C,C]>[C,C] | [C,G,]3 [C,C] [D,B,][E,C] | [F,C]2 !fermata![F,A,]2 [^F,A,][F,C] | %19
 [G,C]G, [G,,G,]3 [G,,F,] | [C,E,]4 |] %21
V:4
 x2 | x6 | x6 | x4 G,G, | x6 | x6 | x6 | x6 | x6 | x6 | x6 | x6 | x6 | x6 | x6 | x6 | x6 | x6 | %18
 x6 | x G, x4 | x4 |] %21

